boxicons/svg/regular/bx-duplicate.svg

<svg xmlns="http://www.w3.org/2000/svg" width="24" height="24" viewBox="0 0 24 24"><path d="M11 10H9v3H6v2h3v3h2v-3h3v-2h-3z"/><path d="M4 22h12c1.103 0 2-.897 2-2V8c0-1.103-.897-2-2-2H4c-1.103 0-2 .897-2 2v12c0 1.103.897 2 2 2zM4 8h12l.002 12H4V8z"/><path d="M20 2H8v2h12v12h2V4c0-1.103-.897-2-2-2z"/></svg>

<svg xmlns="http://www.w3.org/2000/svg" width="24" height="24" viewBox="0 0 24 24"><path d="M11 10L9 10 9 13 6 13 6 15 9 15 9 18 11 18 11 15 14 15 14 13 11 13z"/><path d="M4,22h12c1.103,0,2-0.897,2-2V8c0-1.103-0.897-2-2-2H4C2.897,6,2,6.897,2,8v12C2,21.103,2.897,22,4,22z M4,8h12l0.002,12H4 V8z"/><path d="M20,2H8v2h12v12h2V4C22,2.897,21.103,2,20,2z"/></svg>
